X:135
T:Enrico. RHu.135
S:R.Hughes MS,1823,Whitchurch,Shrops.
N:I’ve added a rest at beginning
A:Whitchurch, Shropshire
Z:Tony Weatherall 2006
M:2/4
L:1/8
Q:1/4=100
R:Country Dance
K:D
z|df/e/ d/c/d/B/|AA FA|df/e/ d/e/f/d/|e2a2|!
df/e/ d/c/d/B/|AA FA|df e/d/e/f/|d2z:|!
|:(f/g/)|aa/g/ ff/e/|d/c/d/e/ f/e/f/g/|\
g/a/g/f/ e/f/e/d/|c/d/e/c/ A/B/c/A/|!
dd c/e/c/A/|dd c/e/c/A/|dd e/d/e/f/|d2z:|

